src/assets/vue.svg

<svg height="36" preserveAspectRatio="xMidYMid meet" viewBox="0 0 256 198" width="37.07" xmlns="http://www.w3.org/2000/svg"><path d="m204.8 0h51.2l-128 220.8-128-220.8h97.92l30.08 51.2 29.44-51.2z" fill="#41b883"/><path d="m0 0 128 220.8 128-220.8h-51.2l-76.8 132.48-77.44-132.48z" fill="#41b883"/><path d="m50.56 0 77.44 133.12 76.8-133.12h-47.36l-29.44 51.2-30.08-51.2z" fill="#35495e"/></svg>

<svg xmlns="http://www.w3.org/2000/svg" xmlns:xlink="http://www.w3.org/1999/xlink" aria-hidden="true" role="img" class="iconify iconify--logos" width="37.07" height="36" preserveAspectRatio="xMidYMid meet" viewBox="0 0 256 198"><path fill="#41B883" d="M204.8 0H256L128 220.8L0 0h97.92L128 51.2L157.44 0h47.36Z"></path><path fill="#41B883" d="m0 0l128 220.8L256 0h-51.2L128 132.48L50.56 0H0Z"></path><path fill="#35495E" d="M50.56 0L128 133.12L204.8 0h-47.36L128 51.2L97.92 0H50.56Z"></path></svg>
